packages/core/src/svgs/tokens/mono/HUSH.svg

<svg width="24" height="24" viewBox="0 0 24 24" fill="none" xmlns="http://www.w3.org/2000/svg">
<path d="M12.8515 14.3828V16.2578C12.8515 16.7265 12.4688 17.1094 12 17.1094C11.9921 17.1094 11.9923 17.1094 11.9844 17.1094C11.7579 17.1015 11.5547 17.0077 11.4062 16.8594C11.2579 16.7109 11.164 16.5079 11.1562 16.2813C11.1562 16.2735 11.1562 16.2735 11.1562 16.2656V13.1172C11.1562 12.836 11.4922 12.7031 11.6875 12.8985L12.625 13.836C12.7656 13.9687 12.8515 14.1719 12.8515 14.3828ZM12.8515 7.77344V10.8906C12.8515 11.1719 12.5156 11.3046 12.3204 11.1094L11.3827 10.1719C11.2344 10.0234 11.1484 9.82037 11.1484 9.60937V7.77344C11.1484 7.76562 11.1484 7.76562 11.1484 7.75781C11.1562 7.30469 11.5234 6.9375 11.9765 6.92969C11.9844 6.92969 11.9844 6.92969 11.9923 6.92969H12C12.4688 6.92187 12.8515 7.30469 12.8515 7.77344ZM8.60156 14.0156C9.07031 14.0156 9.45312 14.3984 9.45312 14.8671V19.3438C9.45312 19.8125 9.07031 20.1953 8.60156 20.1953C8.13281 20.1953 7.75 19.8125 7.75 19.3438V14.8594C7.75 14.3906 8.13281 14.0156 8.60156 14.0156ZM5.19531 18.4531C4.72656 18.4531 4.34375 18.0702 4.34375 17.6015V5.6875C4.34375 5.21875 4.72656 4.83594 5.19531 4.83594C5.66406 4.83594 6.04688 5.21875 6.04688 5.6875V17.6015C6.04688 18.0702 5.66406 18.4531 5.19531 18.4531ZM8.60156 2.98437C9.07031 2.98437 9.45312 3.36719 9.45312 3.83594V11.4922C9.45312 11.961 9.07031 12.3437 8.60156 12.3437C8.13281 12.3437 7.75 11.961 7.75 11.4922V3.83594C7.75 3.36719 8.13281 2.98437 8.60156 2.98437ZM15.3985 20.1953C14.9297 20.1953 14.5469 19.8125 14.5469 19.3438V11.6875C14.5469 11.2188 14.9297 10.8359 15.3985 10.8359C15.8672 10.8359 16.25 11.2188 16.25 11.6875V19.3438C16.25 19.8202 15.8672 20.1953 15.3985 20.1953ZM15.3985 9.17188C14.9297 9.17188 14.5469 8.78906 14.5469 8.32031V3.83594C14.5469 3.36719 14.9297 2.98437 15.3985 2.98437C15.8672 2.98437 16.25 3.36719 16.25 3.83594V8.32031C16.25 8.78906 15.8672 9.17188 15.3985 9.17188ZM18.8047 18.4531C18.336 18.4531 17.9531 18.0702 17.9531 17.6015V5.6875C17.9531 5.21875 18.336 4.83594 18.8047 4.83594C19.2735 4.83594 19.6562 5.21875 19.6562 5.6875V17.6015C19.6484 18.0702 19.2735 18.4531 18.8047 18.4531ZM11.1641 9.92187C11.1641 9.91412 11.1562 9.8985 11.1562 9.89062C11.164 9.90625 11.1641 9.91412 11.1641 9.92187ZM12 18.7656C12.211 18.7656 12.4141 18.7421 12.6094 18.6952C12.7344 18.664 12.8515 18.7579 12.8515 18.8829V21.1485C12.8515 21.6172 12.4688 22 12 22C11.5312 22 11.1484 21.6172 11.1484 21.1485V18.8829C11.1484 18.7579 11.2656 18.664 11.3906 18.6952C11.5859 18.7421 11.789 18.7656 12 18.7656ZM12.8515 2.85156V5.11719C12.8515 5.24219 12.7344 5.33594 12.6094 5.30469C12.4141 5.25781 12.211 5.23438 12 5.23438C11.789 5.23438 11.5859 5.25781 11.3906 5.30469C11.2656 5.33594 11.1484 5.24219 11.1484 5.11719V2.85156C11.1484 2.38281 11.5312 2 12 2H12.0079C12.4687 2 12.8515 2.38281 12.8515 2.85156Z" fill="white"/>
</svg>

<svg xmlns="http://www.w3.org/2000/svg" width="24" height="24" fill="none" viewBox="0 0 24 24">
    <path fill="#fff" d="M12.852 14.383v1.875a.854.854 0 0 1-.852.851h-.016a.857.857 0 0 1-.828-.828v-3.164a.31.31 0 0 1 .531-.219l.938.938a.76.76 0 0 1 .226.547m0-6.61v3.118a.31.31 0 0 1-.532.218l-.937-.937a.8.8 0 0 1-.235-.563V7.758a.844.844 0 0 1 .829-.828H12a.84.84 0 0 1 .851.843m-4.25 6.243c.468 0 .851.382.851.851v4.477a.854.854 0 0 1-.851.851.854.854 0 0 1-.852-.851v-4.485c0-.468.383-.843.852-.843m-3.407 4.437a.854.854 0 0 1-.851-.851V5.688c0-.47.383-.852.851-.852.47 0 .852.383.852.851v11.915a.854.854 0 0 1-.852.851M8.602 2.984c.468 0 .851.383.851.852v7.656a.853.853 0 0 1-.851.852.853.853 0 0 1-.852-.852V3.836c0-.469.383-.852.852-.852m6.797 17.211a.854.854 0 0 1-.852-.851v-7.657c0-.468.383-.851.851-.851.47 0 .852.383.852.851v7.657a.85.85 0 0 1-.851.851m0-11.023a.854.854 0 0 1-.852-.852V3.836c0-.469.383-.852.851-.852.47 0 .852.383.852.852V8.32a.854.854 0 0 1-.851.852m3.406 9.281a.854.854 0 0 1-.852-.851V5.688c0-.47.383-.852.852-.852s.851.383.851.851v11.915a.86.86 0 0 1-.851.851m-7.64-8.531c0-.008-.009-.024-.009-.031a.1.1 0 0 1 .008.03M12 18.766a2.6 2.6 0 0 0 .61-.07.194.194 0 0 1 .242.187v2.265A.853.853 0 0 1 12 22a.854.854 0 0 1-.852-.852v-2.265c0-.125.118-.219.243-.188a2.6 2.6 0 0 0 .609.07m.851-15.914v2.265a.194.194 0 0 1-.242.188 2.6 2.6 0 0 0-.609-.07q-.316 0-.61.07a.194.194 0 0 1-.242-.188V2.852c0-.47.383-.852.852-.852h.008c.46 0 .844.383.844.852"/>
</svg>
